X:623
T: ROSEL WENN DU MEINE WAERST
N: E0573
O: Europa, Mitteleuropa, Deutschland, Schlesien
R: Liebes - Lied
M: 2/4
L: 1/16
K: G
 | d3dd2B2 | G2B2B4 |
D2A2A4 | G2B2B4 |
d3dd2B2 | G2B2B4 |
D2A2A4 | G4z4

@@@ Tune index: 4273
